X:1
T:There’s No Love like His Love for Me
T:There’s No Love like His Love for Me
T:Powell George Fithian
T:John L. Newkirk, 1890
T:Public Domain Courtesy of the Cyber Hymnal™
T:Public Domain Courtesy of the Cyber Hymnal™
C:Powell George Fithian
Z:Public Domain
Z:Courtesy of the Cyber Hymnal™
%%score ( 1 2 ) ( 3 4 )
L:1/8
Q:1/4=140
M:3/4
K:G
V:1 treble 
V:2 treble 
V:3 bass 
V:4 bass 
V:1
 D2 | B2 ^A2 B2 | G2 A2 B2 | c4 c2 | B4 G2 | A4 A2 | (A2 G2) A2 | [DB]4 [Gd]2 | [FA]4 D2 | %9
w: 1.~There’s|no love to|me like the|love of|Je- sus,|Ev- er,|al- * ways|just the|same; E’en|
w: 2.~When|far, far a-|way, and in|con- dem-|na- tion,|Feel- ing|no * one|cared for|me, There|
w: 3.~Oh,|won- der- ful|love, is the|love of|Je- sus,|Who on|Calva- * ry’s|cru- el|tree Was|
 B2 ^A2 B2 | G2 A2 B2 | c4 c2 | B4 G2 | A2 A2 [GA]2 | (A2 d2) [DF]2 x2 | ([FA]2 [EG]2) [^CE]2 | %16
w: tho’ of this|world you may|be most|low- ly,|Je- sus still|loves * you,|bless * His|
w: came a sweet|voice, I shall|ne’er for-|get it,|“Je- sus thy|Sav- * ior|still * loves|
w: wound- ed and|died to make|full a-|tone- ment|For a poor|sin- * ner,|lost, * like|
 D4 ||"^Refrain" D2 | [Fd]3 [Fd] [Fd]2 | ([FA]2 [GB]2) [Ac]2 | [GB]6 | [Gd]6 | [Ge]4 [Ge]2 | %23
w: name.|||||||
w: thee.”|There|nev- er was|one * like|Je-|sus,|Ev- er,|
w: me.|||||||
 [Gd]4 [GB]2 | [GA]4 [G^c]2 | [Fd]4 [Ac]2 | [GB]3 [GB] [GB]2 | ([GB]2 [FA]2) [=FB]2 | [Ec]6 | %29
w: ||||||
w: al- ways|true is|He; There|nev- er was|one * like|Je-|
w: ||||||
 [EG]4 [_EA]2 | [DB]2 [Ec]2 [DB]2 | [^CA]2 [CE]2 [=CF]2 | [B,G]4- | [B,G]6 |] %34
w: |||||
w: sus, There’s|no love like|His love to|me.||
w: |||||
V:2
 x2 | x6 | x6 | x6 | x6 | D6 | D6 | x6 | x6 | x6 | x6 | x6 | x6 | F4 x2 | F4 x4 | x6 | D4 || D2 | %18
 x6 | x6 | x6 | x6 | x6 | x6 | x6 | x6 | x6 | x6 | x6 | x6 | x6 | x6 | x4 | x6 |] %34
V:3
 D,2 | D2 ^C2 D2 | B,2 C2 D2 | E4 _E2 | D4 B,2 | C4 C2 | (C2 B,2) F,2 | G,4 B,2 | [D,D]4 D,2 | %9
 D2 ^C2 D2 | B,2 C2 D2 | E4 _E2 | D4 B,2 | D2 D2 [^CE]2 | D4 z2 A,2 | A,4 G,2 | [D,F,]4 || %17
 [D,F,]2 | [D,A,]3 [D,A,] [D,A,]2 | [D,D]4 [D,D]2 | [G,D]6 | [G,B,]6 | [C,C]4 [E,C]2 | %23
 [G,B,]4 [G,D]2 | [E,^C]4 [E,A,]2 | [D,A,]4 [D,D]2 | [G,D]3 [G,D] [G,D]2 | [G,D]4 [G,D]2 | [C,C]6 | %29
 [C,C]4 [C,C]2 | [D,G,]2 [D,G,]2 [D,G,]2 | [A,,E,]2 [A,,A,]2 [D,A,]2 | [G,,D,G,]4- | [G,,D,G,]6 |] %34
V:4
 x2 | G,6 | G,6 | G,6 | G,6 | D,6 | D,6 | G,6 | x4 D,2 | G,6 | G,6 | G,6 | G,6 | F,4 x2 | %14
 D2 D,4 x2 | A,,6 | x4 || x2 | x6 | x6 | x6 | x6 | x6 | x6 | x6 | x6 | x6 | x6 | x6 | x6 | x6 | %31
 x6 | x4 | x6 |] %34

